presets/tower/bell_tower.svg

<svg height="14" viewBox="0 0 14 14" width="14" xmlns="http://www.w3.org/2000/svg"><path d="m7 0-4 3v11h1v-8a3 3 0 0 1 3-3 3 3 0 0 1 3 3v8h1v-11zm-.3574219 4.5c-1.4712325 1.0990112-1.0161948 1.6171551-1.5175781 3.5292969-.0982955.1004467-.625.4224334-.625.7304687v.2402344h5v-.2402344c.0065855-.3080353-.5716269-.6300223-.6699219-.7304687-.4934518-1.8818927-.0685965-2.6863581-1.4726562-3.5292969zm.3574219 5.25a.75.75 0 0 0 -.75.75.75.75 0 0 0 .75.75.75.75 0 0 0 .75-.75.75.75 0 0 0 -.75-.75z" fill="#555" fill-rule="evenodd"/></svg>

<?xml version="1.0" encoding="UTF-8" standalone="no"?>
<!DOCTYPE svg PUBLIC "-//W3C//DTD SVG 1.1//EN" "http://www.w3.org/Graphics/SVG/1.1/DTD/svg11.dtd">
<svg xmlns:dc="http://purl.org/dc/elements/1.1/" xmlns:xl="http://www.w3.org/1999/xlink" version="1.1" xmlns="http://www.w3.org/2000/svg" viewBox="0 0 14 14" width="14" height="14">
  <defs/>
  <g id="Canvas_1" fill-opacity="1" stroke-dasharray="none" stroke="none" stroke-opacity="1" fill="none">
    <title>Canvas 1</title>
    <g id="Canvas_1_Layer_1">
      <title>Layer 1</title>
      <g id="Graphic_2">
        <path d="M 7 0 L 3 3 L 3 14 L 4 14 L 4 6 C 4 4.343146 5.343146 3 7 3 C 7.7956495 3 8.558711 3.3160705 9.12132 3.8786797 C 9.68393 4.441289 10 5.2043505 10 6 L 10 14 L 11 14 L 11 3 Z M 6.642578 4.5 C 5.1713456 5.599011 5.626383 6.117155 5.125 8.029297 C 5.0267045 8.129744 4.5 8.45173 4.5 8.759766 L 4.5 9 L 9.5 9 L 9.5 8.759766 C 9.506586 8.45173 8.928373 8.129743 8.830078 8.029297 C 8.336626 6.147404 8.761482 5.342939 7.357422 4.5 Z M 7 9.75 C 6.5857864 9.75 6.25 10.085786 6.25 10.5 C 6.25 10.914214 6.5857864 11.25 7 11.25 C 7.414214 11.25 7.75 10.914214 7.75 10.5 C 7.75 10.085786 7.414214 9.75 7 9.75 Z" fill="#555"/>
        <path d="M 7 0 L 3 3 L 3 14 L 4 14 L 4 6 C 4 4.343146 5.343146 3 7 3 C 7.7956495 3 8.558711 3.3160705 9.12132 3.8786797 C 9.68393 4.441289 10 5.2043505 10 6 L 10 14 L 11 14 L 11 3 Z M 6.642578 4.5 C 5.1713456 5.599011 5.626383 6.117155 5.125 8.029297 C 5.0267045 8.129744 4.5 8.45173 4.5 8.759766 L 4.5 9 L 9.5 9 L 9.5 8.759766 C 9.506586 8.45173 8.928373 8.129743 8.830078 8.029297 C 8.336626 6.147404 8.761482 5.342939 7.357422 4.5 Z M 7 9.75 C 6.5857864 9.75 6.25 10.085786 6.25 10.5 C 6.25 10.914214 6.5857864 11.25 7 11.25 C 7.414214 11.25 7.75 10.914214 7.75 10.5 C 7.75 10.085786 7.414214 9.75 7 9.75 Z" stroke="white" stroke-linecap="butt" stroke-linejoin="round" stroke-width="2"/>
      </g>
      <g id="Graphic_3">
        <path d="M 7 0 L 3 3 L 3 14 L 4 14 L 4 6 C 4 4.343146 5.343146 3 7 3 C 7.7956495 3 8.558711 3.3160705 9.12132 3.8786797 C 9.68393 4.441289 10 5.2043505 10 6 L 10 14 L 11 14 L 11 3 Z M 6.642578 4.5 C 5.1713456 5.599011 5.626383 6.117155 5.125 8.029297 C 5.0267045 8.129744 4.5 8.45173 4.5 8.759766 L 4.5 9 L 9.5 9 L 9.5 8.759766 C 9.506586 8.45173 8.928373 8.129743 8.830078 8.029297 C 8.336626 6.147404 8.761482 5.342939 7.357422 4.5 Z M 7 9.75 C 6.5857864 9.75 6.25 10.085786 6.25 10.5 C 6.25 10.914214 6.5857864 11.25 7 11.25 C 7.414214 11.25 7.75 10.914214 7.75 10.5 C 7.75 10.085786 7.414214 9.75 7 9.75 Z" fill="#555"/>
      </g>
    </g>
  </g>
</svg>
